X: 4
T:A Jigg
M:6/4
L:1/4
S:Wright 1713
Z:p
K:G
b|e>fgf>ga|g>fedBG|B3F2G|A>BcB>AG|FBFEe^d|e3F2:||
E/F/|GBdGBd|ceaa^c/^d/e|^d3B2b|bg/a/b af/g/a|ge/f/g fd/e/f|e3E2:||
